dbux-code/resources/light/boolean.svg

<?xml version="1.0" encoding="UTF-8"?>
<svg xmlns="http://www.w3.org/2000/svg" xmlns:xlink="http://www.w3.org/1999/xlink" width="16pt" height="16pt" viewBox="0 0 16 16" version="1.1">
<g id="surface1">
<path style=" stroke:none;fill-rule:nonzero;fill:rgb(25.882353%,25.882353%,25.882353%);fill-opacity:1;" d="M 1 3 L 1 13 L 15 13 L 15 3 Z M 14 12 L 8 12 L 8 8.507812 L 11.996094 8.511719 L 9.878906 10.640625 L 10.585938 11.347656 L 13.933594 8 L 10.585938 4.660156 L 9.878906 5.367188 L 12.015625 7.511719 L 8 7.507812 L 8 4 L 14 4 Z M 14 12 "/>
</g>
</svg>

<svg xmlns="http://www.w3.org/2000/svg" viewBox="0 0 16 16"><style>.icon-canvas-transparent{opacity:0;fill:#f6f6f6}.icon-vs-out{fill:#f6f6f6}.icon-vs-bg{fill:#424242}.icon-vs-fg{fill:#f0eff1}</style><path class="icon-canvas-transparent" d="M16 16H0V0h16v16z" id="canvas"/><path class="icon-vs-out" d="M16 14H0V2h16v12z" id="outline" style="display: none;"/><path class="icon-vs-bg" d="M1 3v10h14V3H1zm13 9H8V8.507l3.998.006-2.121 2.129.707.707 3.35-3.35-3.35-3.338-.707.706 2.138 2.146L8 7.507V4h6v8z" id="iconBg"/><path class="icon-vs-fg" d="M14 4v8H8V8.507l3.998.006-2.121 2.129.707.707 3.35-3.35-3.35-3.338-.707.706 2.138 2.146L8 7.507V4h6zM6.057 5.367L5.35 4.66 2 8.01l3.35 3.338.707-.707-2.139-2.146L8 8.501v-1l-4.064-.005 2.121-2.129z" id="iconFg" style="display: none;"/></svg>
